X:1
T:Si, mi chiamano Mimì La Boheme
T:Sì, mi chiamano Mimì (La Boheme)
T:Giacomo Puccini
T:by IMSLP - Scritto con MuseScore, un software libero e gratuito: http://musescore.org/it
T:by IMSLP - Scritto con MuseScore, un software libero e gratuito: http://musescore.org/it
T:by IMSLP - Scritto con MuseScore, un software libero e gratuito: http://musescore.org/it
T:by IMSLP - Scritto con MuseScore, un software libero e gratuito: http://musescore.org/it
T:by IMSLP - Scritto con MuseScore, un software libero e gratuito: http://musescore.org/it
T:by IMSLP - Scritto con MuseScore, un software libero e gratuito: http://musescore.org/it
T:by IMSLP - Scritto con MuseScore, un software libero e gratuito: http://musescore.org/it
T:by IMSLP - Scritto con MuseScore, un software libero e gratuito: http://musescore.org/it
C:Giacomo Puccini
Z:by IMSLP - Scritto con MuseScore, un software libero e gratuito: http://musescore.org/it
%%score ( 1 2 ) { ( 3 5 ) | ( 4 6 ) }
L:1/8
Q:1/4=40
M:2/4
K:D
V:1 treble nm="Voice"
V:2 treble 
V:3 treble nm="Piano"
V:5 treble 
V:4 bass 
V:6 bass 
V:1
"^Andante lento" z4 | E2 z2 | (G A)!<(! (_B e)!<)! | d2 =f3/2 f/ | ^G2 e3/2 e/ | (e A-) A z | %6
w: |Si.|chia\- ma\- no Mi\-|mì mail mio|no\- meé Lu\-|ci\- a _|
 z A A A | A A A A- | A z/ A/ A A | A B/ G/ E/ E/ E/ E/ | E E !fermata!z z | G A (_B e) | %12
w: La sto\- ria|mia è bre\- ve|_ A te\- laoa|se\- ta ri\- ca\- moin ca\- sae|fuo\- ri|Son tran\- quil\- lae|
 d d/ z/4 d/4 =f3/2 ^G/ | ^G G/ G/ G3/2 e/ |"^rall." (e/A/) (A A) z/ (A/ || %15
w: lie\- ta ed è mio|sva\- go far gi\- glie|ro- * se * Mi|
[M:4/4][Q:1/4=54]"^Andante calmo""^dolcemente" (A2 F2) E2 G2 | F2 A2) (3z (B d (3d B (d) | %17
w: piac\- cion quel\- le|co\- se chehan sì dol\- ce ma\-|
 c2 !breath!c) (c d e f3/2 ^g/ | e3) (f3 a ^g"^rit." | (^g/e/) e-!>(! e4- e) z!>)! || %20
w: li\- a, che par\- la\- no d'a\-|mor, di pri\- ma\-|ve * re, _ _|
[M:2/4] z4 z2!p! (B ||[M:4/4] B B B c A A A (B | F2) F2- F) z (F A | %23
w: che|par\- la\- no di so\- gnie di chi\-|me\- re _ quel\- le|
 (E2"^ten." d) c({Bc)} B A E3/2 A/ |"^a tempo" D2 D2) z2 z A/ A/ | d d z2 z4 | %26
w: co\- se che~han no\- me po\- e\-|si\- a Lei m'in\-|ten\- de?|
[M:2/4]"^Lentamente" z2 z ^F | (G A) (_B e) | d z =f3/2 f/ | ^G z z .e | .A z z2 | %31
w: Mi|chia\- ma\- no Mi\-|mì, il per\-|ché non|so.|
"^con  semplicità"[Q:1/4=144]"^Allegretto moderato" (A2 B c | d3 c | B c d e | A2 A) (A | G F G A | %36
w: So\- la mi|fo il|pran\- zo da me|stes\- sa. Non|va\- do sem\- prea|
 F !breath!D)"^poco rall.           _          _              _               _" !tenuto!d2 | %37
w: mes\- sa ma|
 c c B B | A z"^a piacere" (A A | A2 B c | A2 A) z |"^a tempo" (A2 B c | d3 c) | (Bc) (de) | %44
w: pre\- go~as\- saiil Si\-|gnor. Vi\- vo|so\- la, so\-|let\- ta,|làin u\- na|bian\- ca|ca- * me- *|
 A2 A2 |{/A} (GF) G A | F D"^poco rall." d2 | (c2 B2) | A z !fermata!z2 || %49
w: ret\- ta:|guar- * do sui|tet\- tie in|cie- *|lo,|
[M:4/4]"^con molto anima"[Q:1/4=70]"^Andante molto sostenuto" (B4 A G F{/A} G | F4 E4) | %51
w: ma quan\- do vien lo|sge\- lo|
 (d4 ^c B A{/c} B | A4 (G2 G)) z |"^con grande espansione" f4 (e3 a) | %54
w: il pri\- mo so\- leè|mi\- o _|il pri\- mo|
 !tenuto!e2 !tenuto!d2 !tenuto!B2 !tenuto!d2 | (f4 e3) !>!a |!>(! (e4 d2-) d z!>)! | %57
w: ba\- cio del l'a\-|pri\- le è|mi\- o! _|
 z2"^con espressione intensa" (d2 (^G3 c) | %58
w: il pri\- mo|
"^rall.    _        _                         _                 _                          _                    _                                                 _              _              _" (B4 A3)) !>!c | %59
w: so\- le è|
 (B4 A2-) A z/ (A/ ||"^I° tempo"[Q:1/4=71]"^Andante" (A2) F F"^agitando appena" E2 G G | %61
w: mi\- o! _ Ger\-|mo\- gliain un va\- sou\- na|
 F2 A2) (3z (c d (3d B d | c2 c2) z (e f3/2 ^g/ |"^allarg." e2 e e f2 a3/2 ^g/) | %64
w: ro\- sa Fo\- gliaa fo\- glia la|spi\- ro! Co\- sì gen\-|til il pro\- fu\- mo d'un|
"^calmo come prima" (!>!^g/(e/)!>(!(e) e4-) e z!>)! ||[M:2/4] z2 z B ||[M:4/4]!p! (B3 c A3 B | %67
w: fior _ _ _ _|Mai|fior ch'io fa\- cio,~ahi\-|
 F2- F) z z (F F A | (E2"^ten." d) c({Bc)} B) (A E3/2 A/ | D2 D) z z4 | %70
w: mé! _ i fior ch'io|fac\- cio, ahi\- mé, non han\- noo\-|do\- re!|
 z2 z2 z/ A/"^senza rigore di tempo\ncon naturalezza" (10:2:10A/ A/ A/ A/ A/ A/ A/ A/ A/ x/ d d | %71
w: Al\- tro di me non le sa\- pre\- i nar\- ra\- re:|
 (5:4:5A/ A/ A/ A/ A/ F/ F/ F/ F/ F F/ F/ F/ F/ F/ F/ | D D z2 z4 |] %73
w: so\- no la sua vi\- ci\- na che la vien fuo\- ri d'ora aim por\- tu\-|na\- re.|
V:2
 x4 | x2 z F | GA x2 | x4 | x4 | x4 | x4 | x4 | x4 | x4 | x4 | x4 | x4 | x4 | x4 ||[M:4/4] x8 | %16
w: |Mi|||||||||||||||
 x8 | x8 | x15/2 ^g/ | z8 ||[M:2/4] x7 ||[M:4/4] x8 | x8 | x8 | D4 x4 | x8 |[M:2/4] x4 | GA x2 | %28
w: ||||||||||||
 x4 | x4 | x4 | x4 | x4 | x4 | x4 | x4 | x4 | x4 | x4 | x4 | x4 | x4 | x4 | B c d e | x4 | x4 | %46
w: ||||||||||||||||||
 x4 | x4 | x4 ||[M:4/4] x8 | x8 | x8 | x8 | x8 | x8 | x8 | x8 | x8 | x8 | x8 || x8 | x8 | x8 | x8 | %64
w: ||||||||||||||||||
 ^g/e/e x6 ||[M:2/4] x4 ||[M:4/4] x8 | x8 | x8 | x8 | x5 (10:2:5x3 A/ x/ A/ x/ x2 | x8 | x8 |] %73
w: |||||||||
V:3
 (E4 | E2-) E(F |!p! GA_Be) |!>(! [=Fd]4!>)! |!pp! [D^G]2- [DG] z | [^CA]2- [CA] z | %6
!ppp! z ([d^fad']2 [efae']- | [efae'] [cfac']-[cfac']) !arpeggio![CF]- | [CF] ([cfac']2 [dfad']- | %9
 [d-fad'] [degb]-[degb]) !arpeggio!!>!E- | !fermata!E2- E (F | GA_Be | [=Fd]2- [Fd]) z | %13
!pp! [D^G]2- [DG] z | [^CA]2- [CA] z || %15
[M:4/4]"^dolce" !tenuto![A,D^FA] !tenuto![A,DFA]2 !tenuto![A,DF] !tenuto![B,DE] !tenuto![B,DE] !tenuto![B,DEG] z | %16
 !tenuto![A,DF] !tenuto![A,DF]2 !tenuto![A,DFA] !tenuto![B,DFB] !tenuto![B,DFB]2 !tenuto![B,DFB] | %17
 !tenuto![CFAc] !tenuto![CFAc]2 !tenuto![CFAc] !tenuto![DF^Gd] !tenuto![DFGd]2 !tenuto![DFGd] | %18
 !tenuto![EAce]!<(! !tenuto![EAce]2 !tenuto![EAce] !tenuto![FAdf] (f a>^g)!<)! | %19
!>(! [^Gce] z T^g2({^fg)} c' z Tc'2({^bc')}!>)! || %20
[M:2/4] !arpeggio![fbd'f'] !tenuto![B,DFB]2 !tenuto![A,DFB] x || %21
[M:4/4]!pp! [DFB] [DFB]2 [DFc] [DFA] [DFA]2 [DFB] | z [A,CF]2 [A,CF] [A,CF] [A,CE]2 [A,CF] | %23
 [B,DG] [B,DG]2 [B,DG] [A,CG] [A,CG]2 [A,CG] | %24
"^a tempo"!<(! !tenuto![A,DF] !tenuto![A,DF]2 !tenuto![A,CG]"^rall          _                _            _       _              _" !tenuto![A,B,A]2!<)!!>(! !tenuto![A,CG]2 | %25
 !tenuto![A,DF]!>)! !tenuto![A,DF]2 !tenuto![A,DF] !tenuto![A,F] z z2 |[M:2/4] (E2 G2 | %27
!<(! GA_B!<)!e |!>(! [=Fd]2-!>)! [Fd]) z |!pp! .[EG] z z2 |!pp! .[CA] z z2 |!p! z .D.F.A | %32
 .d.f.a.f | .B.c.d.e | .A.d.f.a |({ga)} .g.f.g.a | .f!pp!.d .[df^gd'] z | .[c^eac'] z .[ce^gb] z | %38
 .[ceac'] z z2 | z4 | z4 |!p! z .D.F.A | .d.f.a.f | .B.c.d.e | .A.d.f.a |{/a} .g.f.g.a | %46
 .f!pp!.d .[dfad'] z | .[ce^gc'] z .[Bdfb] z | .[Acea] z !fermata!z2 || %49
[M:4/4]!pp! ([Bb]4 [Aa][Gg][Ff]{/g}[Gg] | [Ff]4 [Ee])([Ff][Gg][Bb] | %51
 [dd']4 [^c^c'][Bb][Aa]{/c'}[Bb] | %52
 [Aa]4!<(! [Gg]2) !wedge![Ff]/!wedge![Gg]/!wedge![Bb]/!wedge![dd']/!<)! | %53
!f! (!^![ff']4 [ee']3) !>![aa'] | !tenuto![ee']2 !tenuto![dd']2 !tenuto![Bb]2 !tenuto![dd']2 | %55
 (!^![ff']4 [ee']3) !>![aa'] |!>(! ([ee']4 [dd']4-)!>)! |!pp! ([dd']4 [^G^g]3 [cc'] | %58
 (((([Bc=gb]4 [Acga]2-))))) [Acga] ([Cc] |({B,C)G} B4 A2- A) z ||!pp! (A2 F2 E2 G2 | %61
 F2 A2) (3z Bc (3dBd | d4 z (e f>^g |!<(! e4) z [Ad] z2!<)! | %64
 ([^G^g]/(e/)e) Tg2!>(!({^^fg)} c' Tc'2({^bc')} x!>)! || %65
[M:2/4]!pp! !arpeggio![fbd'f'] !tenuto![F,B,DF]2 !tenuto![F,B,DF] || %66
[M:4/4]!ppp! z [DFc]2- [DFc] z [DFc]2- [DFc] | z [A,CF]2 [A,CF]2 ([A,CF]2 [A,CG]) | %68
 z [B,DG]2 [B,DG] z [A,CG]2 [A,CG] | %69
 z"^a tempo"!<(! [A,DF]2 [A,CG]"^rall.          _                     _                     _                         _                         _" !tenuto![A,B,A]2 !tenuto![A,CG]2!<)! | %70
 z!>(! [A,DF]2 [A,DF]2-!>)! !fermata![A,DF]3- | z8 | [A,DF] z z2 z4 |] %73
V:4
 z4 | z4 | B,2 =C2 | A,4 | [B,,^G,]2- [B,,G,] z | [B,,^G,]2- [B,,G,] z |{/A,,,} A,,4- | A,,4 | %8
 [F,A,]2 x2 | x2 [E,G,B,]2- | [E,G,B,]2- [E,G,B,]2 | (_B,2 =C2 | [=C,A,-]2 [C,A,]) z | %13
 [B,,^G,-]2 [B,,G,] z |"^rall.          _          _" [A,,=G,]2- [A,,G,] z || %15
[M:4/4]"^molto piano" z8 | z8 | z8 | z4 !arpeggio![F,,D,A,]2-"^col canto" [F,,D,A,] z | %19
 !arpeggio![C,,^G,,E,][K:treble] [CAc]2 [CEAc] [CEAc] [CEAc]2 [CEAc] || %20
[M:2/4][K:bass] !arpeggio![B,,,F,,B,,]2- [B,,,F,,B,,] z2 ||[M:4/4] (B,3 C A,3 B,) | %22
 !>!F,4- F, z z2 |"^col canto" E,8 | %24
 !tenuto![D,,A,,] !tenuto![D,,A,,]2 !tenuto![E,,A,,] !tenuto![F,,A,,]2 !tenuto![E,,A,,]2 | %25
 !tenuto![D,,A,,] !tenuto![D,,A,,]2 !tenuto![E,,A,,] !tenuto![E,,A,,] z z2 | %26
[M:2/4]"^molto espressivo" z4 | (_B,2 =C2 | A,2- A,2) | .[B,,^G,] z z2 | .[A,,E,] z z2 | !>!A,4- | %32
 A,4- | A,4- | A,4- | .C z z2 | %36
 .D z"^poco rall.     _              _             _              _             _" .B, z | %37
 .C z .C z | .F z"^col canto" z2 | z4 | z4 |"^a tempo" !>!A,4- | A,4- | A,4- | A,4- | A, z z2 | %46
 .D z"^poco rall.      _           _               _               _" .B, z | .E z .E z | %48
 !fermata!A,4 ||[M:4/4] [=G,,,=G,,] [D,G,B,]2 [D,G,B,]2 [D,G,B,]2 [D,G,B,]- | %50
"^cresc poco a poco" [D,G,B,] [D,F,G,B,]2 [D,F,G,B,]2 [D,F,G,B,]2 [D,F,G,B,] | %51
 [E,,,E,,] [E,=G,B,D]2 [E,G,B,D]2 [E,G,B,D]2 [E,G,B,D]- | %52
 [E,G,B,D] [E,G,B,D]2 [E,G,B,D] (E,/G,/B,/D/) z2 | %53
 !>![G,,,G,,] !>![A,CF]2 !>![A,CF]2 !>![A,CE]2 !arpeggio!!>![A,CG] | %54
 [F,,,G,,] [F,A,E]2 [F,A,D]2 [F,A,B,]2 [F,A,D] | !>![G,,,G,,] [A,CF]2 [A,CF]2 [A,CE]2 [A,CG] | %56
"^dim." [G,,,G,,] [F,A,E]2 [F,A,E]2 [F,A,D]2 [F,A,D] | [^E,,,^E,,] (D,^E,^G, B,D^E^G) | %58
"^rall-                   _                            _          _                  _                        _                 _                 _             _           _               _" [=E,,,=E,,] .C,.=G,.B, .C.=E.=G z | %59
 .A,,.E,.G,.B, .C.E.G z || (A,2 F,2 E,2 G,2 | F,2 A,2)[K:treble] z [DF]2 [DF] | %62
 z [FA]2 [FA] z [F^Gd]2 [FGd] | %63
"^allarg." z [Ac]2 [Ac][K:bass] z!p!"^col canto" !arpeggio![F,,D,A,]3 | %64
"^calmo come prima" !arpeggio![C,,G,,E,][K:treble] [E^Gc]2 [EGc]2 [EGc]2 [EGc] || %65
[M:2/4] !arpeggio![G,DG]2- [G,DG] z ||[M:4/4] (f3 a f3 g | %67
[K:bass]!>(! F,4- F,)!>)!"^poco rit.     _             _                   _                       _                            _                      _" z z2 | %68
 (E,8 |!pp! [D,,D,]) [D,,A,,]2 [E,,A,,] !tenuto![F,,A,,]2 !tenuto![E,,A,,]2 | %70
 z [D,,A,,]2 [D,,A,,]2- !fermata![D,,A,,]3- | z8 | [D,,A,,] z z2 z4 |] %73
V:5
 x4 | x4 | D2 E2 | x4 | x4 | x4 | x [D^FA]2 [EFA]- | [EFA] [CFA]-[CFA] z | x [CFA]2 [DFA]- | %9
 [DFA] [B,CB]- [B,CB] x | x4 | D2 E2 | x4 | x4 | x4 ||[M:4/4] x8 | x8 | x8 | x5 [Ad]2 [Ad] | x8 || %20
[M:2/4] x5 ||[M:4/4] x8 | x8 | x8 | x8 | x3 z D4- |[M:2/4] D4- | D2 E2 | x4 | x4 | x4 | x4 | x4 | %33
 x4 | x4 | .A z .c z | .A z x2 | x4 | x4 | x4 | x4 | x4 | x4 | x4 | x4 | .A z .c z | .A z x2 | x4 | %48
 x4 ||[M:4/4] x8 | x8 | x8 | x8 | x8 | x8 | x8 | x8 | x8 | x8 | x8 || z [DF]z[A,D]z[B,D]z[B,DE] | %61
 z [A,D]z[DF] x4 | x8 | x4 [Ff]2 [Aa]>[^A^f] | x8 ||[M:2/4] x4 ||[M:4/4] x8 | x8 | x8 | x8 | x8 | %71
 x8 | x8 |] %73
V:6
 x4 | x4 | =C,4- | C,4 | x4 | x4 | x4 | x2 [F,A,]2- |{/A,,,} A,,4- | A,,4 | %10
{/!fermata!A,,,} !fermata!A,,4 | =C,4 | x4 | x4 | x4 ||[M:4/4] x8 | x8 | x8 | x8 | %19
 x[K:treble] x7 ||[M:2/4][K:bass] x5 ||[M:4/4] x8 | x8 | z4{/A,,,} A,,4 | x8 | x8 |[M:2/4] x4 | %27
 =C,4- | C,2- C, z | x4 | x4 | x4 | x4 | .B z .E z | .F z .D z | .A, z .A, z | x4 | x4 | x4 | x4 | %40
 x4 | x4 | x4 | .G z .E z | .F z .D z | .C z .A, z | x4 | x4 | x4 ||[M:4/4] x8 | x8 | x8 | x8 | %53
 x8 | x8 | x8 | x8 | x8 | x8 | x8 || x8 | x4[K:treble] !>!B,4 | !>!C4 !>!D4 | !>!E4[K:bass] x4 | %64
 x[K:treble] x7 ||[M:2/4] x4 ||[M:4/4] x8 |[K:bass] x8 | z4{/A,,,} A,,4- | x8 | x8 | x8 | x8 |] %73

